X:1
T:Title
%%score { 1 | ( 2 3 ) }
L:1/8
Q:1/4=100
M:4/4
K:G
V:1 treble nm="Grand Piano"
V:2 bass 
V:3 bass 
V:1
 B2 D2 E2 D2 | G>A B>c d4 | c2 B2 A2 G2 | F>[EG] [FA]>[GB] [FA]4 | B2 D2 E2 D2 | G>A B>c d4 | %6
w: Frank~M.~Davis * * *||||||
 e2 d2 c2 B2 | [FA]>[FA] [GB]>[FA] G4 | d4 e2 d2 | D2 E2 D4 | [Ec]>[Ec] [Ec]>[Ec] [Ec]4 | %11
w: |||||
 [GB]>[GB] [GB]>[GB] [FA]4 | G2 D2 G2 B2 | d2 B2 [Ge]4 | [EGA]>[EGA] [EGA]>[EGA] [DGB]2 [CFA]2 | %15
w: ||||
 [B,G]6 z2 |] %16
w: |
V:2
 [G,D]2 [G,B,]2 [G,C]2 [G,B,]2 | [G,B,]>[K:treble][G,CG] [G,DG]>[G,CG] [G,B,G]4 | %2
 [A,DF]2 [G,DG]2[K:bass] [F,A,D]2 [G,B,D]2 | [D,A,D]>[D,D] [D,D]>[D,D] [D,D]4 | %4
 [G,DG]2 [G,B,]2 [G,C]2 [G,B,]2 | [G,B,]>[G,CG] [G,DG]>[G,CG] [G,B,G]4 | %6
 [CG]2 [B,DG]2 [A,DF]2 [G,DG]2 | [D,D]>[D,D] [D,D]>[D,C] [G,B,]4 | [G,B,G]4 [G,CG]2 [G,B,G]2 | %9
 B,2 C2[K:bass] [G,B,]4 | [C,G,]>[C,G,] [C,G,]>[C,G,] [C,G,]4 | [D,D]>[D,D] [D,D]>[D,D] [D,D]4 | %12
 G,2 D,2 G,2 B,2 | [G,B,G]2 [G,DG]2[K:bass] [C,C]4 | C,>C, C,>C, D,2 D,2 | G,6 z2 |] %16
V:3
 x8 | x3/2[K:treble] x13/2 | x4[K:bass] x4 | x8 | x8 | x8 | x8 | x8 | x8 | G,4[K:bass] z4 | x8 | %11
 x8 | x8 | x4[K:bass] x4 | x8 | x8 |] %16

